X: 18998
T: Innocent Railway, The
R: waltz
M: 3/4
K: Dmajor
|:d2A2F2|GF GA B2|A3df2|e3dc2|
d3ed2|c2A2F2|G3AF2|E3G FE|
DE FG A2|d2^G2A2|B2g2c2|
d4 A2|Bggfg2|Affef2|A2 ae c2|d6:|
|:d2f2f2|ef g2g2|f2B2e2|d3cB2|
A3BA2|G2F2E2|FG A2B2|
E3G FE|D2 FA d2|cd ef g2|
f3g e2|d4 A2|Bggfg2|Affef2|A2 ae c2|d6:|

